X: 1186
T: Tyrone's Ditches (A78)
N: page A78
N: heptatonic
M: 4/4
L: 1/8
K: G
GA|"G"Bdg>g G2 "D"a/g/f/e/|"G"dBB>B B2 "C"c/B/A/G/|"G"Bdce dBGB|"Am"A2 AA A2 G>A|
"G"Bdgg g2 "D"a/g/f/e/|"G"dBB>B B2 "C"c/B/A/G/|"G"Bdge dBAB|G2 G>G G2::
fg|"D"afd>d d2 ga|"G"bge>f "C"e2 ga|"G"bgaf gedB|"Am"A2 A>A A2 GA|
"G"Bdgg g2 "D"a/g/f/e/|"G"dBB>B B2 "C"c/B/A/G/|"G"Bdge dBAB|G2 G>G G2:|
